svgs/thin/truck-container-empty.svg

<svg xmlns="http://www.w3.org/2000/svg" viewBox="0 0 640 512"><!--! Font Awesome Pro 6.4.2 by @fontawesome - https://fontawesome.com License - https://fontawesome.com/license (Commercial License) Copyright 2023 Fonticons, Inc. --><path d="M448 160c0-13.3 10.7-24 24-24h72c12.6 0 24.4 5.9 32 16l56 74.7c5.2 6.9 8 15.3 8 24V304v72c0 17.7-14.3 32-32 32h-.4c-4 40.4-38.1 72-79.6 72c-44.2 0-80-35.8-80-80H304c0 44.2-35.8 80-80 80c-31.7 0-59-18.4-72-45.1C139 461.6 111.7 480 80 480c-44.2 0-80-35.8-80-80s35.8-80 80-80c31.7 0 59 18.4 72 45.1c13-26.7 40.3-45.1 72-45.1c38.7 0 71 27.5 78.4 64H448V352 160zM608 392c8.8 0 16-7.2 16-16V304 256H464v96c14.6-19.4 37.8-32 64-32c41.5 0 75.6 31.6 79.6 72h.4zm13.5-152c-.6-1.3-1.4-2.6-2.3-3.7l-56-74.7c-4.5-6-11.6-9.6-19.2-9.6H472c-4.4 0-8 3.6-8 8v80H621.5zM528 464a64 64 0 1 0 0-128 64 64 0 1 0 0 128zM288 400a64 64 0 1 0 -128 0 64 64 0 1 0 128 0zM80 464a64 64 0 1 0 0-128 64 64 0 1 0 0 128z"/></svg>

<svg xmlns="http://www.w3.org/2000/svg" viewBox="0 0 640 512"><!--! Font Awesome Pro 6.1.1 by @fontawesome - https://fontawesome.com License - https://fontawesome.com/license (Commercial License) Copyright 2022 Fonticons, Inc. --><path d="M448 160C448 146.7 458.7 136 472 136H544C556.6 136 568.4 141.9 576 152L632 226.7C637.2 233.6 640 242 640 250.7V376C640 393.7 625.7 408 608 408H607.6C603.6 448.4 569.5 480 528 480C483.8 480 448 444.2 448 400H304C304 444.2 268.2 480 224 480C192.3 480 164.1 461.6 152 434.9C139 461.6 111.7 480 80 480C35.82 480 0 444.2 0 400C0 355.8 35.82 320 80 320C111.7 320 139 338.4 152 365.1C164.1 338.4 192.3 320 224 320C262.7 320 294.1 347.5 302.4 384H448V160zM624 376V256H464V351.1C478.6 332.6 501.8 320 528 320C569.5 320 603.6 351.6 607.6 392H608C616.8 392 624 384.8 624 376V376zM621.5 240C620.9 238.7 620.1 237.4 619.2 236.3L563.2 161.6C558.7 155.6 551.6 152 544 152H472C467.6 152 464 155.6 464 160V240H621.5zM528 464C563.3 464 592 435.3 592 400C592 364.7 563.3 336 528 336C492.7 336 464 364.7 464 400C464 435.3 492.7 464 528 464zM224 336C188.7 336 160 364.7 160 400C160 435.3 188.7 464 224 464C259.3 464 288 435.3 288 400C288 364.7 259.3 336 224 336zM80 464C115.3 464 144 435.3 144 400C144 364.7 115.3 336 80 336C44.65 336 16 364.7 16 400C16 435.3 44.65 464 80 464z"/></svg>
